www/assets/icons/vertical_shades_closed.svg

<svg xmlns="http://www.w3.org/2000/svg" width="24" height="24" viewBox="0 0 24 24" fill='currentColor'><path d="M20 19V3H4v16H2v2h20v-2zM13 5h1.5v14H13zm-2 14H9.5V5H11zM6 5h1.5v14H6zm10.5 14V5H18v14z"/></svg>

<svg width="24" height="24" viewBox="0 0 24 24" xmlns="http://www.w3.org/2000/svg" fill='currentColor'><path d="M20 19V3H4V19H2V21H22V19H20ZM13 5H14.5V19H13V5ZM11 19H9.5V5H11V19ZM6 5H7.5V19H6V5ZM16.5 19V5H18V19H16.5Z"/></svg>
